X:233
T:Polska fr{\aa}n Loftahammar
R:sl\"angpolska
S:efter Karl Andersson, Loftahammar, ur k\"allorna till SvL, Sm{\aa}l 17
H:En variant till Gotlandspolskan "Vill du f\"olja mig och plocka rovor"
H:Se \"aven variant efter J J Bruun, Sk{\aa}ne, "Gu'ske l\"of f\"or dinne sk\"aggede gubben"
A:Sm{\aa}land
Z:id:hn-sp-233
M:3/4
L:1/16
K:D
d2dA F2FA d2A2 | B2BG E4 c4 | d2ef g2e2 f2e2 | d2f2 edcB A4 |
d2dA F2FA d2A2 | B2BG E4 c4 | d2ef g2e2 f2d2 | cdec d4 D4 :|
|: DFAF DFAF DFAF | DGBG DGBG DGBG | Acec Acec Acec | d2A2 edcB A4 |
DFAF DFAF DFAF | DGBG DGBG DGBG | Acec Acec Acec | d2A2 edcB A4 |
d2dA F2FA d2A2 | B2BG E4 c4 | d2ef g2e2 f2d2 | cdec d4 D4 :|
<end>
<start>
